X: 06081
T: ROBERTA'S REEL
C: Bob McQuillen 15 Feb 82
B: Bob's Note Book 6 #81
%R: reel
Z: 2021 John Chambers <jc:trillian.mit.edu>
M: C
L: 1/8
K: G
GA \
| BcBA G2DD | E2GE D2B,D | EGcB ABAG | F2A2 A2GA |\
| BcBA G2DD | EAGE D2B,D | EFGE FGA2 | G6 :|
|: Bc \
| d2Bd cBAG | B2A2 AGAB | c2A2 dedc | Bcde d2BA |\
| G2BB d2g2 | E2AA c2eg | fedc B2A2 | G6 :|
%%begintext align
%% Roberta Sutter
%% plays _WILD_ hammer dulcimer at the
%% Dawn Dances Mike McKernan runs in
%% Brattleboro, Vt. I sure hope you like this tune, Roberta!
%%endtext

%%sep 1 1 500

%%sep 1 1 500

